X:46
T: Uncle Pen
C: Bill Monroe/Mandolin Break
S: MandoZine TablEdit Archives
S: http://www.mandozine.com/music/tabledit_files/UnclePen-A-Monroe.tef
Z: TablEdited by John Fabke for MandoZine
L: 1/8
Q: 376
M: 4/4
K: A
 [fd][f2d2][fd] [f2d2] dA | ce2[eA] [e2A2] [eA][eA] | af e=c BA [A2F2] | AB AF EF AB |
 AB AF EC EE | EF AB [e2A2] [e2A2] | ef e=c BA FD | E2 F2 =G[eAA] [eAA][eAA] | [eAA][eAA] [eAA][eAA] [e2A2A2] [e2A2A2] |
